X: 26279
T: Melody Lane
R: reel
M: 4/4
K: Amixolydian
|:Aeed eA2A|Aeed g2fd|Aeed eA2A|BddB GABG:|
|:AccA e2Ac|cAe2 edcA-|AccA ceeA|BddB GABG:|

